X:16114
%11501
T:Muñeira de Barganaz (MG 50)
R:Muñeira
C:Tradicional (igües Hevia)
S:Música Tradicional Asturiana, (C) Tello & Tito. Asturies, 2001.
S:http://pagina.de/MusTradAst <telloytito@asturies.org>
O:Barganaz
A:Asturies
Z:Métodu de Gaita 50
E:Nivel 4
M:6/8
L:1/8
Q:3/8=88
K:Am
A,B,{D}C|: A,B,{D}C A,B,{D}C|{F}E2 E {G}EEE|
{F}EFE DCB,|{D}CB,A, A,B,{D}C|A,B,{D}C A,B,{D}C|
{F}E2 E {G}EEE|{F}EFE DCB,| [1 A,3 A,B,{D}C:|
 [2 A,3 {D}EEE||
%Error : Single colon in bar
 {F}ECE AGF|E3 {G}EEE|
{F}EFE DCB,|{D}~C2 A, {G}EEE||{F}ECE AG
